X:3055
T:Citadel Waltz
M:3/4
R:waltz
L:1/8
Z:added by Alf warnock@magma.ca
K:D
AG|"D"F2 A2 d2|f3d AF|"Em"E2 F2 G2|"E7"B4 B2|
"A7"AB cd ef|g3g fg|"Em"b4"A7" ag|"D"f4 AG|
"D"F2 A2 d2|f3d AF|"Em"E2 F2 G2|"E7"B4 B2|
"A7"AB cd ef|g2 B2 c2|"D"d3c de|d4 a2|
"D"a2 ^ga ba|"B7"f3f fa|"Em"g2 f2 e2|"E7"B4 B2|
"A7"AB cd ef|g3g fg|"Em"b4 ag|"D"f4"A7" a2|
"D"a2 ^ga ba|"B7"f3f fa|"Em"g2 f2 e2|"E7"B4 B2|
"A7"AB cd ef|g2 B2 c2|"D"d3c de|d4|]


